!!!!SEGMENT: pl-kk--kk-i-11--002-001_anonim--pro-organo-missa-kyrie.krn
!!!cenid: 16xx:1238
!!!COM: Anonim
!!!COM-rismid: pe30004985
!!!CDT:
!!!CNT:
!!!OTL: Pro organo Missa – Kyrie
!!!PDT:
!!!AGN: Sacred
!!!SMS-siglum: PL-Kk
!!!SMS-shelfmark: Kk.I.11
!!!SMS-shelfwork: 002-001 M
!!!SMS-variant:
!!!SMS-altvar:
!!!NIFC-rismid: 1001154133
!!!URL-scan: http://repozytorium.nifc.pl/skany/pl-kk-nut--i-11
!!!ONB-nifc: UWAGA: części Mszy: 1. Kyrie, 2. Et in terra, 3. Patrem. Skany 0009-0010.
**kern	**fba
*I"[Organo]	*
*I'org	*
*clefF4	*
*k[]	*
*d:	*
*M2/1	*
*met(c|)	*
*all\right	*
*2\right	*
=1-	=1-
!LO:TX:a:i:t=Pro Organo Miſsa a 4. B. ta Mſza iest	!
!LO:TX:b:t=Kyrie.	!
1G	.
*2\right	*
2c\	.
2A\	#6
=2-	=2-
1.G	.
2F\	6
=3-	=3-
1E	.
1D	.
=4-	=4-
2.AA/	.
4BB/	.
4C/	.
4D/	.
2E\	.
=5-	=5-
1D	.
2E\	.
2C/	.
=6-	=6-
2BB/	.
2GG/	.
2BB/	.
1D	.
=7-	=7-
.	.
!LO:TX:t=P:problem:♯ below	!
2C#X/	.
1D	.
=8-	=8-
!LO:SIC:v:t=custos D	!
1GG	.
!!LO:LB:g=original
1.D	.
=9-	=9-
.	.
2AA/	.
2.E\	.
4D/	.
=10-	=10-
2C/	.
2D/	.
2GG/	.
2C/	.
=11-	=11-
2F\	.
2D/	.
2.A\	.
4B\	.
=12-	=12-
2c\	.
2B-X\	.
1A	.
=13-	=13-
1G	.
2c\	.
2A\	.
=14-	=14-
1.G	.
2D/	.
=15-	=15-
1GG	.
2AA/	.
2F\	.
=16-	=16-
2E\	.
2C/	.
2E\	.
2G\	.
=17-	=17-
0D	.
=18-	=18-
0GG;	.
!!LO:LB:g=original
*clefC4	*
=19||-	=19||-
*M2/1	*
*met(c|)	*
!LO:TX:t=P:problem:inicjał C	!
1d	.
2e/	.
!LO:TX:t=P:problem:kreska pseudotaktowa	!
2c/	.
=20	=20-
*^	*
4d/	1G	.
4c/	.	.
4B/	.	.
8A/L	.	.
8B/J	.	.
1c	2A\	.
!	!LO:TX:t=P:problem:kreska pseudotaktowa	!
.	2F\	.
*v	*v	*
=21	=21-
4G\	.
4F\	.
4E\	.
8D\L	.
8E\J	.
1F	.
*clefF4	*
=22-	=22-
1C	.
2D/	.
2BB/	.
=23-	=23-
2C/	.
2AA/	.
1BB	.
=24-	=24-
1AA	.
1GG	.
=25-	=25-
1D	.
2E/	.
!LO:SIC:v:t=custos D	!
2C/	.
!!LO:LB:g=original
=26-	=26-
4D/	.
4C/	.
4BB/	.
8AA/L	.
8GG/J	.
1AA	.
=27-	=27-
1GG	.
2D\	.
2F\	.
=28-	=28-
2G\	.
2E\	.
2F#X\	.
2G\	.
=29-	=29-
4C/	.
4D/	.
4E\	.
4F\	.
2G\	.
2F#X\	.
=30-	=30-
2G\	.
2E\	.
1D	.
=31-	=31-
2E/	.
2C/	.
4D/	.
4C/	.
4BB/	.
8AA/L	.
8GG/J	.
=32-	=32-
1AA	.
1AA	.
=33-	=33-
!LO:SIC:v:s=0D	!
!LO:TX:t=P:problem:krzyżyk prawdopodobnie odnosi się do basso continuo	!
0D#X;<	.
!!LO:LB:g=original
=34||-	=34||-
*M2/1	*
*met(c|)	*
!LO:TX:t=P:problem:inicjał K	!
2D\	.
2E\	.
4F#X\	.
4A\	.
4D\	.
2G	.
=35-	=35-
.	.
4F\	.
2E\	.
4D\	.
4AA/	.
4.BB/	.
8C/	.
=36-	=36-
2D/	.
2GG/	.
4AA/	.
2C/	.
4BB/	.
=37-	=37-
2AA/	.
2GG/	.
2E\	.
2D\	.
=38-	=38-
2E\	.
4.F\	.
8G\	.
2A\	.
2D/	.
!!LO:LB:g=original
=39-	=39-
!LO:SIC:v:t=custos F	!
2E\	.
4F\	.
4A\	.
4D\	.
4G\	.
2D/	.
=40-	=40-
2E\	.
2F#X\	.
2GG/	.
2AA/	.
=41-	=41-
4BB/	.
4D/	.
4F\	.
8A\L	.
8G\J	.
4F\	.
4G\	.
2C/	.
=42-	=42-
2D/	.
2E\	.
4F\	.
2A\	.
4G\	.
=43-	=43-
4G\	.
!LO:TX:t=P:problem:♯ prawdopodobnie odnosi się do basso continuo	!
!LO:TX:t=P:problem:♯ above	!
!LO:SIC:v:s=2D/	!
2D#X/	.
4F\	.
2E\	.
4Dn/	.
4C/	.
=44-	=44-
2D/	.
1D	.
!LO:N:vis=0	!
2GG;<	.
==	==
*-	*-
!!!RDF**kern: > = above
!!!RDF**kern: < = below
!!!ENC: Kamil Watkowski
!!!END: 2021-07-09
